X: 1
T: SKIVER THE QUILT -- JIG
B: Ryan's Mammoth Collection of Fiddle Tunes
R: jig
M: 6/8
L: 1/8
Z: Contributed 20010525150626 by John Chambers jc:trillian.mit.edu
K: A
uf \
| eAA GAB | Bee Bcd | ecA GAB | BAA A2f \
| ecA GAB | Bee Bcd | ecA GAB | cAA A2 :|
K: D
|: uf \
| e2f {a}gfg | eag fed | e2f {a}gfg | ea^g a2f \
| aba a=gf | edB def | gfe fdB | ABc d2 :|
